X:121
T:Daybreak in Dixie
C:Adam Steffey, from his CD "Grateful" (1st mando break)
N:Transcribed by John Strong 9/01
R:bluegrass
L:1/8
Q:1/4=320
M:4/4
K:A
ea ac' a4 | ae ac' a2 ef | =g2 f2 e2 d2 | e2 E2 F2 A2 | {d}"A"ee ef ed cB | A2 A2 AA Ac | 
"D"BA BA =cB A=G | F2 A2 A2 A2 | "E"[B=G]^G GG GF E2 | {d}ee ef ed cB | "A"AB cA BA GB | 
A2 FA Bc d^d | "A"e2 {d}e2 e2 {d}ee | ef =gf ed Bc | "D"df ed Bc dB | A=G FE DE FD | 
"E"EF GA Bc de | f=g ^g=g fe gf | "A"ea e^d =dA =c^c | A2 AB cB Ac | "E"B2 G2 B2 G2 | 
B2 G2 B2 G2 | "A"GA [AA][AA] [AA]A BA | {=c}^cc cc cB Ac | "E"[e2B2] G2 [e2B2] G2 | 
[e2B2] [e2B2] [eB]A GA | "A"AB cd ef =gf | =gf ed cB Ac | "E"B2 G2 B2 G2 | B2 G2 B2 G2 | 
"A"GA AA AA AB | cA cB Ac Bc | "D"dB A=G FE DF | "E"EF GA Bd cB | "A"A2 {=G}AA AB cB | 
AF ED FE CB, | A,8 | 


